Assets/Settings/Fuji3513 - Rec709.cube
LUT_3D_SIZE 5
0.0122225 0.0534066 0.0510872
0.121874 0.0775006 0.0369116
0.373907 0.0909133 0
0.569879 0.0973831 0
0.72784 0.12462 0
0 0.120012 0.0523995
0.182208 0.133242 0.0246586
0.502937 0.157946 0
0.690425 0.21146 0
0.783093 0.270695 0
0 0.204288 0.0626993
0.265644 0.266697 0
0.648692 0.31986 0
0.774716 0.321263 0
0.826703 0.378424 0
0 0.302907 0.0853895
0.34992 0.397436 0
0.760128 0.573541 0
0.867552 0.577218 0
0.872526 0.506493 0
0 0.381033 0.105089
0.378546 0.491661 0
0.786084 0.683604 0
0.912474 0.744152 0
0.95552 0.751568 0
0 0.0808576 0.101106
0.207385 0.111528 0.0962692
0.515145 0.102159 0.0043946
0.707683 0.0802167 0
0.798093 0.0742657 0
0 0.166445 0.184375
0.00221256 0.18761 0.212253
0.521813 0.217014 0.151339
0.754574 0.198047 0.077348
0.854246 0.193042 0
0 0.320226 0.270726
0 0.313191 0.144884
0.680949 0.396811 0
0.867018 0.361868 0
0.933318 0.447242 0
0 0.369604 0.286885
0.0222477 0.433951 0.0767987
0.78909 0.623941 0
0.924193 0.637934 0
0.922118 0.556954 0
0 0.37261 0.28307
0.057023 0.510369 0
0.770825 0.704738 0
0.958923 0.783307 0
0.955703 0.753124 0
0 0.137453 0.191241
0.0892348 0.134066 0.204486
0.626886 0.139345 0.0784924
0.770993 0.106584 0.0264897
0.849454 0.140322 0.0356146
0 0.226078 0.294667
0 0.273426 0.378103
0.620996 0.258213 0.256626
0.808682 0.249805 0.229938
0.884504 0.257237 0.21767
0 0.417594 0.480827
0 0.502678 0.576364
0.525856 0.52192 0.544045
0.861875 0.575479 0.535393
0.963699 0.576181 0.487968
0 0.646922 0.672999
0 0.64242 0.657145
0.493187 0.679683 0.452171
0.950423 0.758801 0.377951
1 0.751919 0.419913
0 0.671916 0.670436
0 0.608179 0.561303
0.560067 0.741588 0.313924
0.956191 0.852811 0.384222
1 0.842542 0.149477
0 0.211276 0.296681
0 0.178317 0.277394
0.5664 0.217502 0.204303
0.820981 0.176455 0.0913863
0.875105 0.204791 0.150866
0 0.3028 0.400916
0 0.357717 0.494621
0.538018 0.311147 0.399741
0.850965 0.320195 0.365774
0.915572 0.359319 0.408194
0 0.443351 0.556878
0 0.512749 0.64303
0.27071 0.542565 0.718334
0.882704 0.589792 0.66659
0.963745 0.63473 0.679255
0 0.612619 0.706523
0 0.659815 0.757259
0 0.759701 0.837476
0.872816 0.842435 0.816403
0.988602 0.854322 0.806745
0 0.73225 0.808667
0 0.741283 0.826123
0 0.790173 0.812116
0.869032 0.902724 0.735164
1 0.926162 0.67866
0 0.317708 0.435874
0 0.280842 0.396841
0.519448 0.296803 0.342061
0.821317 0.309468 0.366064
0.918853 0.356542 0.463386
0 0.384863 0.514382
0 0.419974 0.583703
0.331319 0.330434 0.581277
0.831815 0.395361 0.596002
0.937591 0.448417 0.654353
0 0.517006 0.663645
0 0.550912 0.706767
0 0.597925 0.822217
0.799435 0.587762 0.828
0.964309 0.639246 0.81796
0 0.631693 0.767178
0 0.655848 0.790539
0 0.728374 0.864149
0.756069 0.835233 0.912688
0.986572 0.853346 0.901961
0 0.710597 0.822797
0 0.725368 0.834577
0 0.779751 0.879286
0.596719 0.920974 0.949783
0.985962 0.968551 0.950683
