Assets/Settings/Fuji3513 - Rec709.cube
LUT_3D_SIZE 33
0.0122225 0.0534066 0.0510872
0.0160678 0.0549935 0.0513924
0.0312657 0.0591592 0.0509651
0.0406043 0.0630198 0.0502785
0.0488136 0.0664378 0.0487831
0.0655985 0.0700542 0.0470893
0.0794232 0.0729839 0.0444343
0.0982681 0.0752728 0.0409705
0.121874 0.0775006 0.0369116
0.145495 0.0810559 0.0300755
0.174533 0.0848402 0.0231785
0.204562 0.0882887 0.0147402
0.234394 0.0913863 0.00451667
0.271504 0.0911116 0
0.305303 0.0914626 0
0.340185 0.091783 0
0.373907 0.0909133 0
0.40676 0.0890974 0
0.430335 0.0881514 0
0.445808 0.0896162 0
0.474128 0.0901503 0
0.500069 0.0910201 0
0.525383 0.0926833 0
0.548089 0.0952316 0
0.569879 0.0973831 0
0.593088 0.0984207 0
0.616373 0.100053 0
0.6365 0.105074 0
0.655924 0.109392 0
0.674907 0.115496 0
0.69427 0.123262 0
0.710353 0.123568 0
0.72784 0.12462 0
0.00601205 0.0591745 0.0525521
0.0122072 0.0597696 0.053254
0.030045 0.0627451 0.0518044
0.0401312 0.0665751 0.0516213
0.049958 0.070634 0.0514382
0.067689 0.0737469 0.0493019
0.0813001 0.0763104 0.0464485
0.101534 0.0782483 0.0428168
0.12549 0.0805982 0.0383459
0.149966 0.085008 0.0315404
0.179614 0.0881361 0.0225834
0.209949 0.0922103 0.0136568
0.241398 0.0956436 0.00277714
0.279301 0.0959487 0
0.313024 0.0977493 0
0.348577 0.0986801 0
0.384344 0.0977035 0
0.416587 0.0985733 0
0.448798 0.0984512 0
0.471214 0.0996262 0
0.490822 0.101579 0
0.514183 0.102815 0
0.537789 0.104433 0
0.559457 0.107668 0
0.582193 0.11165 0
0.60557 0.114168 0
0.627802 0.116854 0
0.646616 0.122286 0
0.665507 0.126421 0
0.682918 0.132204 0
0.700435 0.137194 0
0.715862 0.137728 0
0.733043 0.137713 0
0 0.0657511 0.0531167
0.00581369 0.0663157 0.0548257
0.0269474 0.0683452 0.0518349
0.0420844 0.0697795 0.0494087
0.0554971 0.0730602 0.0494545
0.0717479 0.0769055 0.0484016
0.0849317 0.0799268 0.0460517
0.106645 0.0825513 0.043122
0.130495 0.086656 0.0389868
0.155596 0.0915847 0.0323186
0.186404 0.0944839 0.021622
0.217746 0.0990311 0.0122377
0.25182 0.102205 0.00105287
0.289296 0.102937 0
0.323644 0.104982 0
0.359731 0.105714 0
0.3944 0.10547 0
0.427268 0.106676 0
0.460441 0.107332 0
0.490715 0.108232 0
0.508247 0.111299 0
0.526482 0.113634 0
0.549615 0.116793 0
0.572305 0.121248 0
0.594766 0.125063 0
0.617288 0.127703 0
0.63772 0.130556 0
0.655695 0.134661 0
0.672999 0.13959 0
0.69073 0.145861 0
0.707042 0.150134 0
0.722026 0.151659 0
0.738735 0.152041 0
0 0.0739605 0.0528725
0.00247196 0.0753643 0.0541695
0.0150454 0.0771496 0.0536965
0.0376135 0.0779126 0.0492866
0.0606241 0.0763409 0.0464485
0.076997 0.0787213 0.0451972
0.0926223 0.0819104 0.0427558
0.11545 0.0856641 0.0398413
0.139605 0.0911421 0.0346532
0.165423 0.0964828 0.0278477
0.196857 0.10222 0.0184176
0.228565 0.106935 0.00917067
0.262592 0.109895 0
0.299672 0.112398 0
0.336294 0.115206 0
0.373938 0.117723 0
0.409751 0.119524 0
0.445106 0.12134 0
0.477745 0.123629 0
0.508858 0.125353 0
0.534829 0.126009 0
0.555261 0.130007 0
0.575967 0.135576 0
0.594842 0.139803 0
0.613489 0.143038 0
0.634043 0.146136 0
0.649744 0.148989 0
0.665888 0.152712 0
0.683848 0.157137 0
0.702968 0.161913 0
0.716381 0.165255 0
0.729946 0.17026 0
0.745174 0.174014 0
0 0.0828412 0.0514992
0 0.0839246 0.0521248
0.00823987 0.0845655 0.0511177
0.0243992 0.0883192 0.0519875
0.0572824 0.0869917 0.0483558
0.0790112 0.0853285 0.045243
0.100938 0.0858778 0.0404517
0.125734 0.088838 0.035584
0.149355 0.0944228 0.0305943
0.179126 0.0998093 0.0222934
0.211688 0.105531 0.0122072
0.241978 0.110964 0.00158694
0.278508 0.114794 0
0.314595 0.118883 0
0.350805 0.122606 0
0.3888 0.126513 0
0.424628 0.129534 0
0.459541 0.132509 0
0.493431 0.135775 0
0.522942 0.139086 0
0.55021 0.142947 0
0.575586 0.147784 0
0.598642 0.152255 0
0.61796 0.156191 0
0.636011 0.160342 0
0.650782 0.165225 0
0.664012 0.169665 0
0.679118 0.173953 0
0.696056 0.178439 0
0.71133 0.183078 0
0.72401 0.190051 0
0.737301 0.195438 0
0.752407 0.199969 0
0 0.0911574 0.0494698
0 0.0920577 0.0493629
0 0.091722 0.0484016
0.020264 0.0954604 0.0499886
0.0533608 0.0973068 0.0508736
0.0789654 0.0952468 0.0436713
0.10425 0.0950179 0.0422217
0.133074 0.0955215 0.0346838
0.160754 0.0985275 0.0263981
0.194568 0.103426 0.0164187
0.225711 0.108995 0.00378424
0.258564 0.114168 0
0.296818 0.118181 0
0.3337 0.123018 0
0.371756 0.12784 0
0.409277 0.132555 0
0.444694 0.136782 0
0.479011 0.141405 0
0.510704 0.146731 0
0.539193 0.153246 0
0.565698 0.158892 0
0.589609 0.163485 0
0.611078 0.168719 0
0.628458 0.173541 0
0.646372 0.178225 0
0.663615 0.181949 0
0.679667 0.185534 0
0.693477 0.191196 0
0.707362 0.19678 0
0.720134 0.203784 0
0.731853 0.211902 0
0.745556 0.216785 0
0.759487 0.221881 0
0 0.0996872 0.0483558
0 0.100145 0.0475776
0 0.0995193 0.0472725
0.0152132 0.102556 0.0474861
0.0495766 0.104402 0.0501259
0.0810559 0.1075 0.046891
0.108309 0.105348 0.0393988
0.137423 0.10605 0.0366979
0.167971 0.106401 0.025742
0.20798 0.108141 0.0106661
0.238697 0.11426 0
0.277699 0.118013 0
0.315053 0.123125 0
0.354177 0.128038 0
0.394598 0.132982 0
0.433799 0.137591 0
0.468254 0.143084 0
0.502678 0.14992 0
0.531243 0.157229 0
0.558556 0.164111 0
0.580011 0.170321 0
0.600443 0.176669 0
0.621744 0.182589 0
0.642481 0.188022 0
0.659937 0.191821 0
0.676646 0.195758 0
0.690669 0.201602 0
0.704433 0.207401 0
0.717784 0.212665 0
0.729091 0.219242 0
0.741299 0.225086 0
0.755596 0.230015 0
0.767605 0.237568 0
0 0.109697 0.0506752
0 0.110002 0.0476844
0 0.109636 0.0470283
0.0055848 0.112032 0.0468605
0.0448463 0.112505 0.0481575
0.0830549 0.115511 0.0450141
0.112062 0.119875 0.0384985
0.141436 0.118532 0.0355077
0.175006 0.117968 0.0276341
0.213657 0.118318 0.0110323
0.251347 0.12047 0
0.294911 0.123827 0
0.336187 0.128801 0
0.376654 0.133684 0
0.416907 0.138506 0
0.455482 0.143664 0
0.489372 0.150973 0
0.520165 0.158587 0
0.547433 0.166033 0
0.571099 0.1729 0
0.5944 0.180255 0
0.618143 0.186038 0
0.640009 0.192187 0
0.657557 0.196429 0
0.674205 0.201129 0
0.689479 0.207385 0
0.704494 0.213291 0
0.718181 0.219135 0
0.728298 0.225864 0
0.740017 0.233845 0
0.753628 0.239872 0
0.765805 0.24654 0
0.775051 0.255467 0
0 0.120012 0.0523995
0 0.12015 0.0483558
0 0.120241 0.0468605
0 0.121706 0.0464942
0.0379187 0.122332 0.0465705
0.0792706 0.12517 0.0450599
0.122759 0.132525 0.0343786
0.148409 0.135668 0.0318761
0.182208 0.133242 0.0246586
0.22179 0.131487 0.00979629
0.261601 0.131945 0
0.306996 0.133532 0
0.35407 0.135668 0
0.398291 0.139528 0
0.436667 0.143191 0
0.473777 0.150637 0
0.502937 0.157946 0
0.5355 0.166415 0
0.56437 0.174182 0
0.590829 0.182177 0
0.614588 0.189105 0
0.638575 0.194965 0
0.657282 0.20032 0
0.67454 0.205325 0
0.690425 0.21146 0
0.705501 0.21706 0
0.71841 0.222416 0
0.729442 0.230594 0
0.741222 0.238041 0
0.753979 0.244511 0
0.765698 0.252247 0
0.773678 0.260182 0
0.783093 0.270695 0
0 0.129625 0.0529335
0 0.12958 0.0483864
0 0.130434 0.046479
0 0.131518 0.0463874
0.028687 0.132845 0.0452125
0.0732586 0.134798 0.0454719
0.124483 0.144823 0.0332341
0.159045 0.1505 0.026276
0.191516 0.154131 0.01149
0.231693 0.149966 0
0.275227 0.148486 0
0.31989 0.147951 0
0.366491 0.148913 0
0.412985 0.149767 0
0.453513 0.152285 0
0.487648 0.159045 0
0.525139 0.166918 0
0.558007 0.175341 0
0.585107 0.183627 0
0.611948 0.191272 0
0.635538 0.197696 0
0.655283 0.203418 0
0.673671 0.209537 0
0.689952 0.215671 0
0.705898 0.220722 0
0.718746 0.22678 0
0.730129 0.235004 0
0.74136 0.242603 0
0.753735 0.249042 0
0.765408 0.255955 0
0.772931 0.264073 0
0.781201 0.273136 0
0.791623 0.285451 0
0 0.138338 0.0526131
0 0.138537 0.0483101
0 0.140703 0.0468452
0 0.14168 0.0461738
0.0191958 0.143267 0.044358
0.0694896 0.14641 0.0437476
0.119112 0.1561 0.0347753
0.169833 0.164004 0.0181888
0.205249 0.167865 0
0.241367 0.17142 0
0.286519 0.167361 0
0.336583 0.165576 0
0.383215 0.166659 0
0.428412 0.166278 0
0.46865 0.167269 0
0.506111 0.169162 0
0.545373 0.176791 0
0.577234 0.185458 0
0.605325 0.193591 0
0.631327 0.200366 0
0.652461 0.206561 0
0.670909 0.212421 0
0.688869 0.218982 0
0.704631 0.224552 0
0.718624 0.231907 0
0.729641 0.240009 0
0.741161 0.247318 0
0.753079 0.254231 0
0.764446 0.260822 0
0.772198 0.268421 0
0.780392 0.276967 0
0.78938 0.287388 0
0.798505 0.297612 0
0 0.15024 0.0550088
0 0.150271 0.050248
0 0.154101 0.0497292
0 0.1552 0.0452735
0.0146181 0.155734 0.0421607
0.0681315 0.159335 0.0412909
0.117021 0.16643 0.034699
0.175418 0.178439 0.0115816
0.222004 0.185626 0
0.256153 0.192294 0
0.298711 0.192508 0
0.348669 0.184985 0
0.399771 0.185779 0
0.445945 0.185122 0
0.486412 0.184878 0
0.521843 0.185443 0
0.561028 0.189944 0
0.592035 0.196201 0
0.622782 0.203052 0
0.648661 0.210025 0
0.668116 0.215808 0
0.684901 0.221866 0
0.702312 0.229343 0
0.717433 0.235874 0
0.728908 0.243671 0
0.739971 0.251118 0
0.751308 0.257816 0
0.76257 0.265171 0
0.77174 0.272648 0
0.77937 0.281239 0
0.787518 0.290257 0
0.795804 0.300069 0
0.803586 0.312947 0
0 0.161334 0.0566415
0 0.162448 0.0523995
0 0.16614 0.0511025
0 0.168338 0.0445869
0.0112154 0.169055 0.0383307
0.0662547 0.17229 0.038407
0.122026 0.177722 0.0296025
0.177935 0.192233 0.00886549
0.238819 0.205142 0
0.27483 0.210834 0
0.324804 0.219837 0
0.359854 0.215991 0
0.416526 0.210086 0
0.4636 0.207507 0
0.505745 0.206546 0
0.541741 0.205768 0
0.57673 0.207675 0
0.606973 0.210437 0
0.634699 0.215976 0
0.659037 0.221332 0
0.679744 0.227298 0
0.697826 0.234012 0
0.716381 0.241016 0
0.727352 0.247807 0
0.738796 0.254719 0
0.749828 0.261738 0
0.760632 0.269398 0
0.770596 0.277089 0
0.778103 0.284672 0
0.785611 0.293187 0
0.793149 0.303044 0
0.800427 0.313985 0
0.807874 0.328435 0
0 0.171313 0.0572518
0 0.173922 0.0543526
0 0.177798 0.0512245
0 0.179538 0.0442969
0.0131228 0.181704 0.0364385
0.0675212 0.185321 0.033402
0.12784 0.190753 0.0231479
0.18114 0.20473 0.00585946
0.244968 0.221241 0
0.298634 0.228702 0
0.33991 0.237278 0
0.388678 0.249271 0
0.431067 0.243122 0
0.479728 0.234531 0
0.525154 0.231724 0
0.562722 0.231296 0
0.595621 0.232746 0
0.625071 0.235157 0
0.652232 0.237247 0
0.671901 0.240375 0
0.689296 0.244602 0
0.707561 0.249058 0
0.724758 0.254337 0
0.735805 0.259312 0
0.747158 0.265797 0
0.758038 0.273259 0
0.769009 0.280934 0
0.776654 0.288518 0
0.78378 0.295338 0
0.790616 0.305257 0
0.797803 0.316884 0
0.805035 0.329519 0
0.811627 0.341955 0
0 0.181231 0.0580758
0 0.185138 0.0563973
0 0.189075 0.0513619
0 0.189853 0.0431067
0.0171511 0.193423 0.0349889
0.069337 0.199161 0.0274662
0.129625 0.205173 0.0184024
0.187442 0.217899 0.000381476
0.250965 0.235554 0
0.315984 0.247715 0
0.361471 0.257282 0
0.407767 0.270909 0
0.459983 0.280354 0
0.494743 0.266529 0
0.542062 0.258335 0
0.5823 0.257908 0
0.615259 0.259312 0
0.644816 0.260838 0
0.670298 0.261311 0
0.686564 0.264057 0
0.703319 0.267659 0
0.72047 0.269001 0
0.732692 0.270588 0
0.743938 0.274998 0
0.755566 0.280461 0
0.767849 0.28632 0
0.776471 0.292851 0
0.783032 0.299611 0
0.789136 0.30837 0
0.796262 0.319417 0
0.803983 0.330663 0
0.810452 0.342489 0
0.817014 0.355032 0
0 0.19144 0.0596628
0 0.197208 0.059205
0 0.200824 0.051545
0 0.201511 0.0415503
0.0175784 0.205798 0.0315862
0.0735637 0.212543 0.0215152
0.136172 0.219059 0.0117494
0.195117 0.231205 0
0.258442 0.251591 0
0.330617 0.269184 0
0.385565 0.281437 0
0.418784 0.287572 0
0.477699 0.306416 0
0.521096 0.311025 0
0.554681 0.296468 0
0.600229 0.286336 0
0.63241 0.287022 0
0.661982 0.288411 0
0.686427 0.289281 0
0.704112 0.290288 0
0.718654 0.291279 0
0.733181 0.293919 0
0.742977 0.294316 0
0.752514 0.294499 0
0.764446 0.297185 0
0.77673 0.301976 0
0.782925 0.30721 0
0.78909 0.313588 0
0.795727 0.322698 0
0.803189 0.333028 0
0.809705 0.34345 0
0.815488 0.354559 0
0.821866 0.366873 0
0 0.204288 0.0626993
0 0.210498 0.0623484
0 0.212726 0.0520485
0 0.214511 0.0372015
0.0125429 0.219013 0.0251469
0.0807202 0.227039 0.0112001
0.144778 0.234638 0
0.202625 0.247303 0
0.265644 0.266697 0
0.341146 0.288106 0
0.402792 0.303655 0
0.446738 0.310674 0
0.487465 0.322103 0
0.545403 0.340627 0
0.578958 0.341024 0
0.611231 0.32607 0
0.648692 0.31986 0
0.679683 0.31989 0
0.701854 0.320287 0
0.719493 0.320424 0
0.73257 0.320851 0
0.745251 0.321263 0
0.754635 0.320272 0
0.764096 0.319692 0
0.774716 0.321263 0
0.783719 0.322011 0
0.788815 0.324224 0
0.794781 0.329381 0
0.801785 0.336919 0
0.809308 0.345327 0
0.81471 0.35552 0
0.820188 0.366308 0
0.826703 0.378424 0
0 0.216678 0.0665904
0 0.222644 0.0625315
0 0.224323 0.0524605
0 0.226703 0.0297398
0.00790417 0.231342 0.0191196
0.0922866 0.241352 0
0.153826 0.250843 0
0.21416 0.263951 0
0.272755 0.280659 0
0.351202 0.306538 0
0.416114 0.323888 0
0.470756 0.332341 0
0.511604 0.344076 0
0.55758 0.363272 0
0.60827 0.382574 0
0.631769 0.374151 0
0.658351 0.360098 0
0.693721 0.354818 0
0.715908 0.352026 0
0.733761 0.352438 0
0.746792 0.351766 0
0.758633 0.35169 0
0.767605 0.349111 0
0.775982 0.346792 0
0.784802 0.346441 0
0.792035 0.346136 0
0.796063 0.345495 0
0.801129 0.34696 0
0.808194 0.353002 0
0.814939 0.360143 0
0.819684 0.367971 0
0.82472 0.377508 0
0.831083 0.389059 0
0 0.22858 0.0698863
0 0.23331 0.0624857
0 0.235828 0.0530098
0 0.238621 0.0234073
0.0111543 0.243793 0.0100557
0.100237 0.255573 0
0.164523 0.266316 0
0.22443 0.278706 0
0.284871 0.297017 0
0.361685 0.322988 0
0.430854 0.34464 0
0.488487 0.35671 0
0.539422 0.372427 0
0.570016 0.383536 0
0.621698 0.408209 0
0.658732 0.420508 0
0.675959 0.409522 0
0.702113 0.396551 0
0.729549 0.387732 0
0.746181 0.383825 0
0.760403 0.383246 0
0.770581 0.380209 0
0.779965 0.377615 0
0.787732 0.375494 0
0.795651 0.37409 0
0.801053 0.372 0
0.80531 0.37052 0
0.809873 0.369787 0
0.81471 0.370123 0
0.820249 0.374746 0
0.824475 0.38175 0
0.829602 0.389731 0
0.836088 0.401297 0
0 0.240879 0.0722057
0 0.244068 0.063386
0 0.247105 0.0496071
0 0.250401 0.0204776
0.0218814 0.257435 0
0.106554 0.269383 0
0.175769 0.281056 0
0.234745 0.293538 0
0.298939 0.314443 0
0.373785 0.341268 0
0.445487 0.366949 0
0.504143 0.382132 0
0.559121 0.40032 0
0.596445 0.413138 0
0.624643 0.423178 0
0.672953 0.450767 0
0.70164 0.459541 0
0.715129 0.446448 0
0.737743 0.433402 0
0.759136 0.420706 0
0.774624 0.417548 0
0.78439 0.413855 0
0.792126 0.408927 0
0.799634 0.406027 0
0.806729 0.403754 0
0.811246 0.401144 0
0.814939 0.397757 0
0.818906 0.394873 0
0.82295 0.392676 0
0.826444 0.392508 0
0.829984 0.397513 0
0.834913 0.404562 0
0.841031 0.414374 0
0 0.252079 0.0740215
0 0.255268 0.0639963
0 0.258274 0.0440681
0 0.26186 0.0138094
0.0291905 0.270695 0
0.114839 0.283314 0
0.185168 0.29546 0
0.244572 0.309529 0
0.310201 0.332311 0
0.383078 0.359411 0
0.456413 0.386664 0
0.517754 0.405814 0
0.572244 0.423804 0
0.618448 0.438544 0
0.645106 0.448066 0
0.67866 0.469078 0
0.719066 0.493797 0
0.743267 0.497475 0
0.750088 0.480293 0
0.769772 0.466728 0
0.789731 0.456703 0
0.797848 0.44773 0
0.80444 0.441627 0
0.810819 0.437919 0
0.817288 0.43476 0
0.821134 0.431006 0
0.824475 0.426535 0
0.82771 0.422126 0
0.831113 0.418173 0
0.833844 0.415747 0
0.836072 0.414649 0
0.840467 0.419989 0
0.846143 0.428687 0
0 0.263066 0.0757458
0 0.267811 0.0652934
0 0.270695 0.0410163
0 0.274388 0.00653086
0.0361334 0.285176 0
0.122332 0.298726 0
0.193668 0.312535 0
0.256199 0.328801 0
0.321859 0.350973 0
0.392447 0.377127 0
0.464942 0.404135 0
0.528603 0.427482 0
0.581811 0.444755 0
0.633982 0.463066 0
0.666758 0.477745 0
0.689143 0.489937 0
0.726833 0.516014 0
0.76051 0.532967 0
0.774914 0.533196 0
0.780682 0.514763 0
0.797772 0.500496 0
0.810819 0.487419 0
0.816403 0.477836 0
0.821927 0.471138 0
0.827573 0.465812 0
0.831464 0.461021 0
0.835218 0.456153 0
0.837751 0.451316 0
0.839887 0.445228 0
0.842313 0.441611 0
0.844373 0.438224 0
0.846448 0.436606 0
0.85124 0.444312 0
0 0.275853 0.0791638
0 0.282155 0.0681163
0 0.283848 0.0374304
0 0.288792 0.00109865
0.0444953 0.300603 0
0.129244 0.313832 0
0.2038 0.329397 0
0.265904 0.346853 0
0.332555 0.368246 0
0.400809 0.393179 0
0.471778 0.420508 0
0.537209 0.445579 0
0.591745 0.466911 0
0.641794 0.485573 0
0.682826 0.504555 0
0.705303 0.515862 0
0.729473 0.528832 0
0.768154 0.55581 0
0.790478 0.568139 0
0.800992 0.563012 0
0.807828 0.547143 0
0.821683 0.533104 0
0.830793 0.519249 0
0.835447 0.507652 0
0.840467 0.500587 0
0.843534 0.494148 0
0.846357 0.487312 0
0.848112 0.481315 0
0.849348 0.474464 0
0.85069 0.468177 0
0.852644 0.463584 0
0.853574 0.459251 0
0.855741 0.459068 0
0 0.289174 0.0821851
0 0.295262 0.0707561
0 0.295949 0.0323491
0 0.302693 0
0.0519112 0.314 0
0.135714 0.32784 0
0.214405 0.344808 0
0.274723 0.362661 0
0.342 0.383566 0
0.410315 0.409201 0
0.479103 0.435828 0
0.545602 0.464057 0
0.60206 0.48838 0
0.649378 0.507134 0
0.693172 0.526802 0
0.723262 0.541039 0
0.742092 0.549111 0
0.769177 0.566445 0
0.797864 0.588754 0
0.815854 0.596414 0
0.825376 0.591852 0
0.831006 0.577569 0
0.839719 0.56202 0
0.84863 0.547784 0
0.854322 0.537331 0
0.856138 0.529244 0
0.858396 0.522271 0
0.860334 0.515557 0
0.861891 0.507836 0
0.861997 0.49987 0
0.862608 0.492912 0
0.861845 0.484871 0
0.861952 0.47982 0
0 0.302907 0.0853895
0 0.307347 0.0706188
0 0.308156 0.0265965
0 0.315724 0
0.0593118 0.326863 0
0.14229 0.341466 0
0.219821 0.359701 0
0.283116 0.377462 0
0.34992 0.397436 0
0.420035 0.424643 0
0.486656 0.45127 0
0.552529 0.480339 0
0.611551 0.508202 0
0.65658 0.525399 0
0.699794 0.54519 0
0.736461 0.562921 0
0.760128 0.573541 0
0.776074 0.581079 0
0.79733 0.596643 0
0.8224 0.616129 0
0.839155 0.623362 0
0.847211 0.619577 0
0.850065 0.605158 0
0.85742 0.590051 0
0.867552 0.577218 0
0.869291 0.565667 0
0.870634 0.556848 0
0.872709 0.548592 0
0.874784 0.540887 0
0.874327 0.533196 0
0.873838 0.524865 0
0.872755 0.514397 0
0.872526 0.506493 0
0 0.315663 0.088365
0 0.317937 0.0671702
0 0.319936 0.0227665
0 0.327153 0
0.0696117 0.339376 0
0.148516 0.35433 0
0.223255 0.372091 0
0.291646 0.390112 0
0.357214 0.409934 0
0.427878 0.439231 0
0.493462 0.466255 0
0.558297 0.494865 0
0.618128 0.524361 0
0.663188 0.542962 0
0.704906 0.562356 0
0.744228 0.580957 0
0.775952 0.594324 0
0.789746 0.601038 0
0.800397 0.606897 0
0.82153 0.623987 0
0.845502 0.643473 0
0.857984 0.649546 0
0.863005 0.644327 0
0.867323 0.632654 0
0.874083 0.617685 0
0.880522 0.603967 0
0.883741 0.593362 0
0.886015 0.583505 0
0.88835 0.573785 0
0.887129 0.566064 0
0.885527 0.557244 0
0.885069 0.547433 0
0.88426 0.536568 0
0 0.326452 0.0913252
0 0.328573 0.0653849
0 0.3308 0.0199893
0.00373846 0.338415 0
0.0767224 0.350378 0
0.152956 0.365728 0
0.227268 0.384466 0
0.299275 0.402609 0
0.362173 0.421408 0
0.433555 0.453605 0
0.499855 0.480949 0
0.56318 0.508293 0
0.622354 0.538155 0
0.66981 0.559503 0
0.710079 0.577646 0
0.748379 0.595804 0
0.784115 0.610864 0
0.802045 0.62031 0
0.812222 0.626108 0
0.823331 0.63357 0
0.844388 0.65098 0
0.863355 0.668208 0
0.87277 0.671458 0
0.879057 0.668788 0
0.884123 0.658793 0
0.889708 0.643992 0
0.894774 0.630594 0
0.897078 0.619074 0
0.898787 0.609064 0
0.898878 0.59913 0
0.897856 0.590539 0
0.897581 0.580621 0
0.896696 0.568902 0
0 0.336339 0.0939193
0 0.339147 0.0640116
0 0.341314 0.0168154
0.0109102 0.348974 0
0.0818036 0.360632 0
0.157168 0.376471 0
0.231144 0.394675 0
0.305348 0.414923 0
0.36907 0.435874 0
