Assets/Settings/Fuji3513 - Rec709.cube
LUT_3D_SIZE 9
0.0122225 0.0534066 0.0510872
0.0488136 0.0664378 0.0487831
0.121874 0.0775006 0.0369116
0.234394 0.0913863 0.00451667
0.373907 0.0909133 0
0.474128 0.0901503 0
0.569879 0.0973831 0
0.655924 0.109392 0
0.72784 0.12462 0
0 0.0828412 0.0514992
0.0572824 0.0869917 0.0483558
0.149355 0.0944228 0.0305943
0.278508 0.114794 0
0.424628 0.129534 0
0.55021 0.142947 0
0.636011 0.160342 0
0.696056 0.178439 0
0.752407 0.199969 0
0 0.120012 0.0523995
0.0379187 0.122332 0.0465705
0.182208 0.133242 0.0246586
0.35407 0.135668 0
0.502937 0.157946 0
0.614588 0.189105 0
0.690425 0.21146 0
0.741222 0.238041 0
0.783093 0.270695 0
0 0.161334 0.0566415
0.0112154 0.169055 0.0383307
0.238819 0.205142 0
0.416526 0.210086 0
0.57673 0.207675 0
0.679744 0.227298 0
0.738796 0.254719 0
0.778103 0.284672 0
0.807874 0.328435 0
0 0.204288 0.0626993
0.0125429 0.219013 0.0251469
0.265644 0.266697 0
0.487465 0.322103 0
0.648692 0.31986 0
0.73257 0.320851 0
0.774716 0.321263 0
0.801785 0.336919 0
0.826703 0.378424 0
0 0.252079 0.0740215
0.0291905 0.270695 0
0.310201 0.332311 0
0.572244 0.423804 0
0.719066 0.493797 0
0.789731 0.456703 0
0.817288 0.43476 0
0.831113 0.418173 0
0.846143 0.428687 0
0 0.302907 0.0853895
0.0593118 0.326863 0
0.34992 0.397436 0
0.611551 0.508202 0
0.760128 0.573541 0
0.839155 0.623362 0
0.867552 0.577218 0
0.874784 0.540887 0
0.872526 0.506493 0
0 0.346487 0.0966659
0.0851301 0.370504 0
0.374762 0.449775 0
0.627924 0.56228 0
0.789151 0.638575 0
0.855329 0.674388 0
0.901793 0.709133 0
0.919646 0.679179 0
0.919402 0.634043 0
0 0.381033 0.105089
0.0686961 0.409018 0
0.378546 0.491661 0
0.629221 0.605356 0
0.786084 0.683604 0
0.870344 0.722301 0
0.912474 0.744152 0
0.941207 0.766873 0
0.95552 0.751568 0
0 0.0661784 0.0687266
0.0707866 0.0778973 0.0795148
0.157092 0.0885023 0.0617838
0.298314 0.0940414 0.0303502
0.446433 0.0885023 0
0.568383 0.0767071 0
0.653117 0.080766 0
0.711955 0.0869306 0
0.740566 0.110002 0
0 0.0936446 0.0979477
0 0.100603 0.105455
0.138994 0.121035 0.0993668
0.2907 0.129915 0.0646982
0.450843 0.123537 0
0.578607 0.113313 0
0.66743 0.115602 0
0.727672 0.12401 0
0.773037 0.137331 0
0 0.140475 0.108171
0 0.14818 0.0925002
0.169986 0.159121 0.0708324
0.348272 0.164202 0.0379339
0.523476 0.181781 0
0.653437 0.195544 0
0.740276 0.21529 0
0.793469 0.23476 0
0.825895 0.263981 0
0 0.16173 0.097322
0 0.19649 0.0890059
0.177508 0.22002 0.0607309
0.410895 0.239673 0
0.606561 0.226062 0
0.712612 0.250401 0
0.773449 0.279698 0
0.811337 0.312871 0
0.835904 0.353506 0
0 0.185183 0.100175
0 0.248173 0.0810407
0.206271 0.280674 0.0308995
0.510567 0.352193 0
0.674372 0.35198 0
0.760357 0.343404 0
0.788617 0.34345 0
0.809659 0.363317 0
0.832166 0.401282 0
0 0.224002 0.111894
0 0.299641 0.0703136
0.249531 0.350912 0
0.565896 0.449363 0
0.735225 0.515221 0
0.800443 0.48539 0
0.821439 0.45507 0
0.833051 0.434516 0
0.84976 0.445716 0
0 0.303563 0.148608
0 0.349828 0.0610361
0.28629 0.413901 0
0.581231 0.513817 0
0.780636 0.602853 0
0.839796 0.636057 0
0.868513 0.592752 0
0.8757 0.552056 0
0.875593 0.517617 0
0 0.350301 0.176013
0 0.389685 0.0522316
0.310246 0.463432 0
0.595636 0.564172 0
0.807218 0.662623 0
0.860456 0.683497 0
0.900267 0.713344 0
0.919707 0.684031 0
0.918715 0.635203 0
0 0.384878 0.191669
0 0.426596 0.046067
0.313069 0.497597 0
0.591073 0.596338 0
0.799969 0.700359 0
0.883406 0.735744 0
0.913222 0.747677 0
0.939132 0.765484 0
0.955108 0.750851 0
0 0.0808576 0.101106
0.0129091 0.0849775 0.110079
0.207385 0.111528 0.0962692
0.354299 0.115877 0.066041
0.515145 0.102159 0.0043946
0.630945 0.0826581 0
0.707683 0.0802167 0
0.759899 0.0773938 0
0.798093 0.0742657 0
0 0.105745 0.127779
0 0.116823 0.150057
0.183139 0.137682 0.142565
0.34786 0.148531 0.111604
0.521324 0.135653 0.0612345
0.640299 0.112657 0.0244602
0.717586 0.100649 0.00505074
0.772107 0.0972457 0
0.811856 0.0995193 0
0 0.166445 0.184375
0 0.189242 0.218769
0.00221256 0.18761 0.212253
0.319203 0.212222 0.187228
0.521813 0.217014 0.151339
0.665339 0.208804 0.118624
0.754574 0.198047 0.077348
0.811109 0.187396 0.0417182
0.854246 0.193042 0
0 0.280842 0.275532
0 0.269322 0.245609
0 0.255421 0.175006
0.393866 0.288014 0.137194
0.605142 0.275853 0.116945
0.741405 0.29723 0.0769513
0.833341 0.324636 0.0448768
0.890898 0.351781 0.00381476
0.923888 0.365484 0
0 0.320226 0.270726
0 0.304646 0.2318
0 0.313191 0.144884
0.432258 0.384527 0.0945907
0.680949 0.396811 0
0.805722 0.358175 0
0.867018 0.361868 0
0.907027 0.399252 0
0.933318 0.447242 0
0 0.336141 0.261616
0 0.341848 0.231754
0 0.377172 0.115831
0.460655 0.458473 0.0890059
0.755795 0.543236 0
0.857404 0.525689 0
0.902022 0.48423 0
0.908995 0.464775 0
0.92462 0.497581 0
0 0.369604 0.286885
0 0.372549 0.237552
0.0222477 0.433951 0.0767987
0.499046 0.52517 0.0289769
0.78909 0.623941 0
0.891386 0.672908 0
0.924193 0.637934 0
0.938552 0.59617 0
0.922118 0.556954 0
0 0.380575 0.293217
0 0.401679 0.244953
0.0610361 0.478416 0.0347753
0.520928 0.573846 0
0.785657 0.666453 0
0.915328 0.727291 0
0.948974 0.75198 0
0.943893 0.707317 0
0.944015 0.66009 0
0 0.37261 0.28307
0 0.436377 0.253635
0.057023 0.510369 0
0.522255 0.605203 0
0.770825 0.704738 0
0.913146 0.764294 0
0.958923 0.783307 0
0.979706 0.793622 0
0.955703 0.753124 0
0 0.10753 0.143648
0 0.105135 0.145892
0.166796 0.127901 0.150393
0.420142 0.138521 0.0983444
0.576013 0.118639 0.0516976
0.673426 0.0934462 0.0242618
0.742824 0.0903182 0.0119936
0.794186 0.090898 0.00967422
0.834775 0.103182 0.00660716
0 0.13109 0.172427
0 0.148379 0.203693
0.0622416 0.138918 0.2038
0.408026 0.174044 0.154223
0.574792 0.160555 0.11664
0.688685 0.139864 0.0830243
0.759609 0.128588 0.0653849
0.81033 0.131518 0.0616312
0.842741 0.1355 0.0493019
0 0.185199 0.233158
0 0.21413 0.274372
0 0.215457 0.29073
0.372641 0.235325 0.248447
0.573861 0.236576 0.215488
0.705653 0.22446 0.191058
0.782818 0.216388 0.172274
0.831662 0.207874 0.152026
0.862989 0.20238 0.125658
0 0.284077 0.325963
0 0.331182 0.380362
0 0.361913 0.421515
0.25301 0.333989 0.369055
0.551324 0.357092 0.341924
0.723354 0.368719 0.325948
0.825452 0.373449 0.311894
0.885786 0.373754 0.295796
0.918639 0.37023 0.260349
0 0.431312 0.448005
0 0.47834 0.489479
0 0.468162 0.461921
0.127489 0.416312 0.292119
0.644999 0.469291 0.27396
0.799558 0.46334 0.29456
0.886336 0.497353 0.28867
0.941207 0.533593 0.283574
0.977798 0.560647 0.251606
0 0.550454 0.53991
0 0.510567 0.482994
0 0.487297 0.425269
0.143557 0.492149 0.254582
0.689982 0.588403 0.222019
0.857481 0.59115 0.161685
0.924269 0.552468 0.203525
0.964996 0.555245 0.164813
0.996963 0.594537 0.1364
0 0.564401 0.528557
0 0.504601 0.453208
0 0.507118 0.409003
0.264179 0.556115 0.219318
0.692638 0.645167 0.229664
0.902663 0.70663 0.0775769
0.966705 0.683284 0.0123751
0.994049 0.646097 0.0824903
1 0.633112 0.0238499
0 0.548455 0.494255
0 0.505364 0.442237
0 0.506935 0.375586
0.338918 0.596674 0.176135
0.706371 0.68188 0.19469
0.910109 0.754147 0.0948806
0.986419 0.783322 0.0168917
1 0.756405 0
1 0.721798 0
0 0.52105 0.459815
0 0.498756 0.424231
0 0.506676 0.340764
0.355428 0.626123 0.113985
0.69987 0.713832 0.108248
0.890105 0.782086 0.0930037
0.989899 0.818341 0.0426947
1 0.833494 0.000137331
1 0.792447 0
0 0.137453 0.191241
0 0.130922 0.189593
0.0892348 0.134066 0.204486
0.360113 0.170565 0.163394
0.626886 0.139345 0.0784924
0.723156 0.116869 0.0397192
0.770993 0.106584 0.0264897
0.817655 0.115389 0.028336
0.849454 0.140322 0.0356146
0 0.158907 0.214694
0 0.193118 0.270542
0 0.164675 0.253819
0.345388 0.200168 0.223499
0.631388 0.183871 0.147585
0.729061 0.164355 0.116716
0.785428 0.154986 0.10248
0.829969 0.166201 0.10547
0.86302 0.187518 0.112474
0 0.226078 0.294667
0 0.257725 0.338659
0 0.273426 0.378103
0.277272 0.239261 0.334173
0.620996 0.258213 0.256626
0.74107 0.251026 0.235935
0.808682 0.249805 0.229938
0.855589 0.251804 0.224964
0.884504 0.257237 0.21767
0 0.310994 0.384634
0 0.350484 0.436088
0 0.381064 0.481544
0.077409 0.343709 0.463142
0.593454 0.372396 0.401053
0.749432 0.384146 0.389944
0.838117 0.390539 0.392172
0.889036 0.385245 0.378714
0.916411 0.37055 0.343633
0 0.417594 0.480827
0 0.457877 0.52546
0 0.502678 0.576364
0 0.530007 0.603037
0.525856 0.52192 0.544045
0.745968 0.5552 0.540383
0.861875 0.575479 0.535393
0.927962 0.582589 0.520897
0.963699 0.576181 0.487968
0 0.543847 0.581888
0 0.584863 0.621485
0 0.623697 0.662058
0 0.648829 0.659373
0.465965 0.622065 0.493996
0.816083 0.671839 0.477974
0.909545 0.672587 0.513283
0.964645 0.703761 0.511482
0.998825 0.731838 0.498314
0 0.646922 0.672999
0 0.665736 0.695811
0 0.64242 0.657145
0 0.637903 0.587808
0.493187 0.679683 0.452171
0.842283 0.754437 0.43978
0.950423 0.758801 0.377951
0.988006 0.733623 0.437858
1 0.751919 0.419913
0 0.692866 0.720928
0 0.664012 0.670771
0 0.619013 0.598947
0 0.63238 0.53521
0.552834 0.719112 0.403922
0.83331 0.782788 0.434669
0.969055 0.827054 0.364614
1 0.814374 0.275471
1 0.788128 0.344503
0 0.671916 0.670436
0 0.627741 0.600229
0 0.608179 0.561303
0 0.621592 0.463645
0.560067 0.741588 0.313924
0.823072 0.804471 0.359503
0.956191 0.852811 0.384222
1 0.872709 0.338659
1 0.842542 0.149477
0 0.171954 0.243305
0 0.164569 0.236912
0.00648508 0.151736 0.246876
0.339452 0.195254 0.212665
0.591241 0.184817 0.148074
0.748592 0.146242 0.0581216
0.807095 0.147967 0.045655
0.835462 0.151858 0.048661
0.861936 0.174853 0.0691234
0 0.194858 0.268009
0 0.231495 0.324727
0 0.207019 0.308461
0.324147 0.212909 0.290852
0.57995 0.22359 0.219837
0.754772 0.188251 0.135348
0.815137 0.191272 0.137881
0.845273 0.194446 0.141375
0.875837 0.218067 0.176577
0 0.268055 0.352239
0 0.289891 0.385504
0 0.327016 0.448325
0.148577 0.246082 0.388235
0.555749 0.290303 0.332494
0.77348 0.273045 0.268467
0.835248 0.280064 0.282841
0.872389 0.29395 0.297658
0.903044 0.315923 0.323033
0 0.342275 0.436042
0 0.380194 0.483711
0 0.405035 0.523827
0 0.378759 0.544274
0.536522 0.377783 0.488807
0.775876 0.398642 0.439475
0.852567 0.415702 0.452155
0.904051 0.440681 0.476051
0.934173 0.450568 0.480049
0 0.430472 0.525002
0 0.463401 0.566476
0 0.496818 0.609476
0 0.521385 0.649622
0.401801 0.525338 0.646815
0.765774 0.561852 0.599359
0.867338 0.592782 0.609735
0.926879 0.603967 0.615915
0.957977 0.578851 0.574365
0 0.526894 0.605142
0 0.56379 0.646296
0 0.598428 0.686076
0 0.649485 0.735866
0.135836 0.67512 0.736828
0.744137 0.713985 0.698604
0.874601 0.733654 0.70045
0.944152 0.743236 0.692683
0.982818 0.744427 0.672312
0 0.62681 0.691249
0 0.652049 0.718074
0 0.677455 0.743465
0 0.72079 0.779873
0 0.754452 0.755825
0.737209 0.778241 0.668879
0.923049 0.814664 0.650156
0.971542 0.822675 0.680262
1 0.843641 0.683604
0 0.697581 0.752758
0 0.710933 0.768048
0 0.716625 0.77731
0 0.717128 0.757382
0 0.740398 0.672068
0.747112 0.808957 0.624903
0.93547 0.862806 0.619684
1 0.86714 0.555032
1 0.855085 0.606134
0 0.734371 0.802304
0 0.723903 0.776287
0 0.702754 0.733989
0 0.70103 0.688777
0 0.730236 0.580713
0.745998 0.838346 0.534157
0.915007 0.877836 0.585718
0.999451 0.906203 0.576593
1 0.886107 0.432044
0 0.211276 0.296681
0 0.198199 0.282277
0 0.178317 0.277394
0.329778 0.2094 0.260868
0.5664 0.217502 0.204303
0.73991 0.185748 0.121355
0.820981 0.176455 0.0913863
0.856504 0.197482 0.143206
0.875105 0.204791 0.150866
0 0.231769 0.318715
0 0.271901 0.375967
0 0.253285 0.368826
0.244205 0.221012 0.34902
0.546166 0.258 0.282536
0.743633 0.239612 0.220401
0.83238 0.231235 0.217502
0.871931 0.255604 0.256809
0.891142 0.263722 0.259861
0 0.3028 0.400916
0 0.319921 0.425376
0 0.357717 0.494621
0.0281834 0.274815 0.447303
0.538018 0.311147 0.399741
0.737896 0.318486 0.366735
0.850965 0.320195 0.365774
0.890272 0.3393 0.392096
0.915572 0.359319 0.408194
0 0.375662 0.483925
0 0.406119 0.524086
0 0.423529 0.559152
0 0.42356 0.612345
0.444953 0.381765 0.561975
0.73962 0.423453 0.527794
0.872328 0.439841 0.525353
0.913268 0.463462 0.537392
0.94023 0.487388 0.557122
0 0.443351 0.556878
0 0.478172 0.599664
0 0.512749 0.64303
0 0.54081 0.68983
0.27071 0.542565 0.718334
0.73138 0.553536 0.691432
0.882704 0.589792 0.66659
0.931289 0.618097 0.669459
0.963745 0.63473 0.679255
0 0.545571 0.657816
0 0.576761 0.692561
0 0.596948 0.715587
0 0.630686 0.754894
0.0794385 0.647562 0.776425
0.671336 0.709895 0.777859
0.880415 0.735897 0.754406
0.940887 0.758099 0.758923
0.977981 0.753841 0.746548
0 0.612619 0.706523
0 0.637491 0.732708
0 0.659815 0.757259
0 0.700877 0.797192
0 0.759701 0.837476
0.582849 0.817197 0.835111
0.872816 0.842435 0.816403
0.948257 0.852598 0.815625
0.988602 0.854322 0.806745
0 0.6804 0.76144
0 0.697826 0.778958
0 0.712139 0.796307
0 0.73341 0.816785
0 0.806058 0.864118
0.444434 0.850752 0.831754
0.88011 0.879637 0.796384
0.977691 0.902449 0.770794
1 0.909102 0.800977
0 0.73225 0.808667
0 0.737972 0.817441
0 0.741283 0.826123
0 0.738033 0.813657
0 0.790173 0.812116
0.358541 0.83743 0.731807
0.869032 0.902724 0.735164
0.975891 0.933196 0.761685
1 0.926162 0.67866
0 0.258137 0.358297
0 0.240146 0.33846
0 0.215244 0.319615
0.28217 0.220706 0.322942
0.540871 0.255161 0.26453
0.729625 0.237675 0.213382
0.824384 0.232044 0.214878
0.874342 0.248508 0.243702
0.900908 0.28278 0.304997
0 0.277043 0.378973
0 0.312245 0.429221
0 0.3037 0.427359
0.121248 0.230991 0.393515
0.527581 0.287892 0.347585
0.717388 0.289509 0.325475
0.831067 0.287602 0.327031
0.886839 0.301701 0.355917
0.913207 0.331609 0.398795
0 0.343557 0.456489
0 0.34815 0.466484
0 0.386542 0.536599
0 0.328145 0.521675
0.509178 0.323278 0.500832
0.719158 0.354025 0.464195
0.839139 0.364233 0.466926
0.903914 0.378347 0.490227
0.927153 0.405035 0.514122
0 0.407919 0.531411
0 0.430457 0.563836
0 0.441001 0.5879
0 0.473747 0.669841
0.312047 0.395178 0.635294
0.726574 0.431647 0.641306
0.854597 0.461784 0.617823
0.924483 0.486336 0.633097
0.946395 0.516167 0.633997
0 0.470878 0.600839
0 0.505165 0.64097
0 0.532235 0.67718
0 0.55697 0.716808
0.0507973 0.564996 0.78352
0.625055 0.554726 0.751827
0.86128 0.583612 0.745907
0.938827 0.612543 0.737133
0.963348 0.645869 0.730571
0 0.552392 0.683909
0 0.577005 0.709178
0 0.595132 0.731167
0 0.630671 0.771801
0 0.654017 0.81619
0.575479 0.713481 0.838193
0.854627 0.724498 0.823926
0.949996 0.745037 0.807401
0.976257 0.77026 0.802899
0 0.629801 0.749249
0 0.6477 0.766461
0 0.657847 0.777935
0 0.685237 0.808347
0 0.7299 0.851469
0.524758 0.790005 0.867369
0.838483 0.841291 0.868559
0.949294 0.853483 0.860182
0.983307 0.866361 0.860822
0 0.670848 0.773816
0 0.684627 0.786206
0 0.70016 0.80293
0 0.71989 0.82501
0 0.788037 0.876646
0.332479 0.855177 0.906157
0.791272 0.907347 0.90486
0.947646 0.922148 0.896819
0.988464 0.925948 0.895094
0 0.718303 0.814389
0 0.728298 0.822721
0 0.73669 0.832593
0 0.744091 0.841108
0 0.788708 0.875227
0 0.862776 0.916747
0.66566 0.921386 0.889448
0.947738 0.94786 0.883558
1 0.955535 0.859541
0 0.317708 0.435874
0 0.304295 0.416434
0 0.280842 0.396841
0.123384 0.234714 0.38056
0.519448 0.296803 0.342061
0.70808 0.305119 0.349096
0.821317 0.309468 0.366064
0.887037 0.323339 0.402533
0.918853 0.356542 0.463386
0 0.334508 0.455756
0 0.35996 0.495415
0 0.352605 0.491676
0 0.277378 0.455787
0.510369 0.306722 0.460487
0.702892 0.33521 0.446998
0.81886 0.348211 0.463218
0.891066 0.361227 0.496788
0.927199 0.393668 0.551156
0 0.384863 0.514382
0 0.3823 0.516152
0 0.419974 0.583703
0 0.401938 0.598779
0.331319 0.330434 0.581277
0.708156 0.37293 0.60795
0.831815 0.395361 0.596002
0.901747 0.414725 0.613413
0.937591 0.448417 0.654353
0 0.449088 0.591791
0 0.464485 0.614298
0 0.465858 0.624079
0 0.513085 0.709407
0.101061 0.440131 0.724407
0.602335 0.447791 0.736065
0.83946 0.473243 0.746792
0.918425 0.502144 0.736355
0.95288 0.536553 0.752743
0 0.517006 0.663645
0 0.535973 0.686275
0 0.550912 0.706767
0 0.5691 0.737789
0 0.597925 0.822217
0.466636 0.563439 0.81622
0.799435 0.587762 0.828
0.92604 0.606516 0.822614
0.964309 0.639246 0.81796
0 0.573495 0.719326
0 0.590814 0.737987
0 0.606943 0.753933
0 0.637186 0.78735
0 0.666911 0.83917
0.435798 0.717571 0.883452
0.756268 0.715114 0.86833
0.928893 0.731517 0.876463
0.977325 0.751659 0.865507
0 0.631693 0.767178
0 0.647517 0.780819
0 0.655848 0.790539
0 0.679332 0.817227
0 0.728374 0.864149
0.378698 0.777127 0.896605
0.756069 0.835233 0.912688
0.927123 0.84303 0.906401
0.986572 0.853346 0.901961
0 0.681636 0.805646
0 0.689952 0.813214
0 0.697246 0.819226
0 0.708309 0.829023
0 0.766537 0.878691
0.252171 0.824109 0.919875
0.722789 0.884337 0.92929
0.926375 0.921172 0.935134
0.987839 0.927398 0.931731
0 0.710597 0.822797
0 0.717174 0.827802
0 0.725368 0.834577
0 0.735195 0.843519
0 0.779751 0.879286
0 0.855711 0.934615
0.596719 0.920974 0.949783
0.894972 0.958785 0.955245
0.985962 0.968551 0.950683
